build/img/0-common/arrow-right.svg

<svg width="16" height="16" viewBox="0 0 16 16" fill="none" xmlns="http://www.w3.org/2000/svg">
<g clip-path="url(#clip0)">
<path d="M1.60714 6.95737C1.66794 6.9475 1.72946 6.94295 1.79101 6.94375H12.2724L12.0439 6.83744C11.8205 6.73171 11.6172 6.5878 11.4433 6.41224L8.50402 3.47298C8.11692 3.10345 8.05187 2.50899 8.34988 2.06448C8.69673 1.59081 9.36188 1.48796 9.83559 1.8348C9.87386 1.86284 9.91023 1.8934 9.94441 1.92629L15.2595 7.24139C15.6749 7.6563 15.6753 8.32936 15.2603 8.74473C15.2601 8.745 15.2598 8.7453 15.2595 8.74557L9.94441 14.0607C9.52871 14.4752 8.85565 14.4743 8.44107 14.0586C8.40845 14.0259 8.37799 13.991 8.34988 13.9544C8.05187 13.5099 8.11692 12.9154 8.50402 12.5459L11.438 9.6013C11.5939 9.44517 11.7732 9.31425 11.9695 9.21329L12.2884 9.06979H1.84951C1.30647 9.08995 0.830042 8.71062 0.728025 8.17685C0.634048 7.59734 1.02763 7.05138 1.60714 6.95737Z" fill="white"/>
</g>
<defs>
<clipPath id="clip0">
<rect width="14.8571" height="14.8571" fill="white" transform="matrix(-1 0 0 1 15.5713 0.571533)"/>
</clipPath>
</defs>
</svg>

<svg width="16" height="16" fill="none" xmlns="http://www.w3.org/2000/svg"><g clip-path="url(#clip0)"><path d="M1.607 6.957c.06-.01.122-.014.184-.013h10.481l-.228-.107a2.125 2.125 0 01-.6-.425l-2.94-2.939a1.1 1.1 0 01-.154-1.409 1.063 1.063 0 011.594-.138l5.315 5.315a1.063 1.063 0 010 1.505L9.944 14.06a1.063 1.063 0 01-1.594-.107 1.1 1.1 0 01.154-1.408L11.438 9.6c.156-.156.335-.287.531-.388l.32-.143H1.848a1.1 1.1 0 01-1.121-.893c-.094-.58.3-1.126.88-1.22z" fill="#fff"/></g><defs><clipPath id="clip0"><path fill="#fff" transform="matrix(-1 0 0 1 15.571 .572)" d="M0 0h14.857v14.857H0z"/></clipPath></defs></svg>
